X: 0
T: The Miraculous Harvest
L: 1/4
M: 4/4
Q: 1/4=105
K: D
[V: P1]  (A/ G/) | F (F/ E/) F F/ E/ | (F3/ E/) D D | E/ E/ E A (A/ G/) | F2z A | B3/ A/ (G/ F/) (E/ D/) | (F3/ G/ A) d | B G E E | D3|]
[V: P2]  [C,A,] | [D,A,] [(D,/(A,/] [D,/)G,/)] [D,A,] [(D,/(A,/] [D,/)G,/)] | [D,A,] [(D,/(A,/] [D,/)G,/)] [D,F,] [D,F,] | [C,2A,2] [C,2A,2] | [D,A,] [E,A,] [F,A,] [D,A,] | [G,D] [A,D] [B,D] G, | [D,A,] [E,A,] [(F,/(A,/] [E,/)A,/)] [D,A,] | [G,B,] E, (A, [A,)C)] | [D,3F,3]|]

